!!!COM: Hugo Wolf
!!!CNT: Deutscher
!!!TXO: Deutsche 
!!!OTL: Der Tambour
!!!ONM: No. 5
!!!ODT: 1888/
!!!LYR: Moericke
!!!ENC: Brian Bice
!!!YOR: 65 Songs for voice and piano, International Music Company, 1960
!!NB: Vocal melody and text only encoded.
**kern	**silbe
*clefG2	*
*k[f#c#g#d#]	*
*M4/4	*
=3	=3
2r	.
8.r	.
{16f#	{Wenn
8.g#	mei-
16a#	-ne
=4	=4
8.b	Mut-
16f#	-ter
8.cc#	he-
16a#	-zen
8b}	ko2nnt',}
8r	.
4r	.
=5	=5
8.r	.
{16c#	{da
8.d	mu2sst
16e#	sie
8.f#	mit
16a	dem
8.g#	Re-
16cc#	-gi-
=6	=6
4cc#	-ment,
8r	.
8f#	nach
4ddn	Frank-
4b	-reich
=7	=7
8.ee	u2-
16ddn	-ber-
8.cc#	-all
16b	mit
8.a	hin,
16g#	und
8.f#	wa2r'
16a	die
=8	=8
8.g#	Mar-
16cc#	-ke-
2ee	-ten-
4dd#	-de-
=9	=9
4cc#}	-rin.}
4r	.
2r	.
=10	=10
2r	.
4r	.
{4c#	{Im
=11	=11
4.f#	La-
8f#	-ger,
4f#	wohl
4g#	um
=12	=12
4.a	Mit-
8a	-ter-
4a	-nacht,
4f#	wenn
=13	=13
4b	nie-
4a	-mand
4g#	auf
4f#	ist
=14	=14
4.e#	als
8g#	die
4cc#}	Wacht,}
{4b	{und
=15	=15
4.ddn	al-
8ddn	-les
4c#	schnar-
4c#	-chet,
=16	=16
4.ddn	Ross
8ddn	und
2B#}	Mann,}
=17	=17
8r	.
{8c#	{vor
8f#	mei-
8g#	-ner
8a#	Trom-
8cc#	-mel
8g#	sa2ss'
8cc#	ich
=18	=18
2f#}	dann:}
4r	.
8r	.
{8f#	{die
=19	=19
4.b	Trom-
8cc#	-mel
(8ee	mu2sst'
8ddn)	|
8cc#	ei-
8b	-ne
=20	=20
8.cc#	Schu2s-
16ff#	-sel
[4ff#	sein,
8ff#]	|
8r	.
4ff#	ein
=21	=21
4.ee	war-
8ee	-mes
4dd#	Sau-
(8cc#	-er-
8b)	|
=22	=22
(8a#	-kraut
8g#)	|
(8f##	da-
8g#)	|
8a#}	-rein,}
8r	.
{4b	{die
=23	=23
4.ee	Schle-
8b	-gel
4g#	Mes-
8e	-ser
8g#	und
=24	=24
2b	Ga-
8b	-bel,
8r	.
8b	ei-
8b	-ne
=25	=25
(8ee	lan-
8ff#)	|
(8gg#	-ge
8ff#)	|
(8ee	Wurst
8b)	|
(8g#	mein
8e)	|
=26	=26
2b	Sa-
8b}	-bel,}
8r	.
{4ddn	{mein
=27	=27
8ggn	Tscha-
8r	.
4gn	-ko
(8a	wa2r'
8b)	|
(8ccn	ein
8ddn)	|
=28	=28
8.ee	Hum-
16ggn	-pen
4ggn	gut,
4r	.
4ggn	den
=29	=29
4ff#	fu2ll'
4f#	ich
(8g#	mit-
8a#)	|
(8b	Bur-
8cc#)	|
=30	=30
8.dd	-gun-
16ff#	-der-
4ff#}	-blut.}
4r	.
{4b	{Und
=31	=31
4b	weil
4b	es
4b	mir
4b	an
=32	=32
4b	Lich-
4e	-te
4a}	fehlt,}
8r	.
{8a	{da
=33	=33
4a	scheint
4a	der
[2ff#	Mond
=34	=34
8ff#]	|
8ee	in
8b	mein
8g#	Ge-
2f#}	-zelt;}
=35	=35
{4g#	{scheint
4g#	er
4g#	auch
8g#	auf
8dd#	Fran-
=36	=36
4ee	-zo2'sch
4dd#	her-
2cc#	-ein,
=37	=37
4b	mir
(8a#	fa2llt
8g#)	|
(8dd	doch
8cc#)	|
8b	mei-
8an	-ne
=38	=38
(8g#	Lieb-
4b)	|
8a#	-ste
8an}	ein:}
8r	.
{4ccn	{ach
=39	=39
[4f#	weh!
8f#]	|
8r	.
4r	.
4ccn	ach
=40	=40
[4f#	weh!
8f#]	|
8r	.
4r	.
4ccn	ach
=41	=41
4r	.
4f#	weh!
4r	.
[4ccn	weh!
=42	=42
4ccn]}	|}
8r	.
{8b	{jetzt
8a#	hat
8an	der
8gn	Spass
8f#	ein
=43	=43
4e}	End'!}
4r	.
2r	.
=45	=45
2r	.
{8.e	{Wenn
16f#	nur
8.gn	mei-
16a#	-ne
=46	=46
8.b	Mut-
16f#	-ter
8.ddn	he-
16cc#	-xen
8b}	ko2nnt'!}
8r	.
4r	.
=52	=52
8.r	.
{16d#	{Wenn
8.e	mei-
16f#	-ne
8.g#	Mut-
16e	-ter
8.f#	he-
16b	-xen
=53	=53
[1b	ko2nnt'!
=54	=54
1b_	|
=55	=55
2.b]}	|}
8r	.
*-	*-
